X: 106103
T: STUMPIE
Q:"Strathspey."
R: Strathspey.
%R:strathspey
Z: 2017 by John Chambers <jc:trillian.mit.edu>
B: Kerr's Merrie Melodies v.1 p.6 s.1 #3
M: C
L: 1/16
K: A
|: d2 |\
(ce3) a3ub (agfe) a4 | (ce3) a2ga bB3 B3ud |\
(ce3) a3ub (agfe) a3ue | ce3 B3d c2A2A2 :|
|: ud2 |\
ce3 e2(dc) df3 f2(ed) | ce3 e2(dc) fB3 B3d |\
ce2 e2(dc) df3 f2(ed) | ca3 B3d c2A2A2 :|

%%sep 1 1 500
%%sep 1 1 500

